X: 1
P: Mr. Charles Graham's Welcome Home
C: William Gow (from John Chambers)
C: arr. Terry Traub, 8-28-03
M: 6/8
L: 1/8
R: Jig
K: Am
|: A/G/|"Am"E>AA A2 G|"Am"B>AA A2 B|"G"d2 e dBg|"Em"B>GG G2 A/G/|"Am"E>AA A2 G|"Am"B>AA A2 B|"G"d2 e dBg|"A"B>AA A2 :|
e|"Am"a>^ga a2 e|"Am"a>^ga a2 e|"G"=g>bg "C"ege|"G"dBG G2 e|"Am"a>^ga a2 e|"Am"a>^ga a2 e|"G"=g>bg "C"ege|"Am"dBA A2 ||
e|"Am"a>^ga a2 e|"D"a>^ga a2 e|"G"=g>bg "C"ege|"G"dBG "Em"G2 A|"Am"E>AA A2 G|"Am"B>AA A2 B|"G"d2 e dBg|"Am"B>AA A2 |]
